X:19062
T:Xiraldilla (CT 356)
R:Xiraldilla
C:Tradicional
S:Música Tradicional Asturiana, (C) Tello & Tito. Asturies, 2001.
S:http://pagina.de/MusTradAst <telloytito@asturies.org>
N:Xiraldilla, transcrita en Uviéu.
O:Uviéu
A:Asturies
Z:Cancioneru de Torner 356
M:3/8
L:1/8
Q:3/8=88
W:Debajo del molino,
W:nació un romero, leré,
W:nació un romero, leré,
W:nació un romero, leré, leré,
W:nació un romero;
W:
W:quién fuera enamorada
W:del molinero, leré,
W:del molinero, leré,
W:del molinero, leré, leré,
W:del molinero.
K:Gm
|: G G/G/G/G/|G G2|ddd|c c/B/ A|
ccc|B B/A/ G|BBB|A A/G/F/E/|D3|
G^FG|(A-A3/2B/4A/4)|G3-|G z2 :||


